src/assets/icons/ico-checked.svg

<svg width="18" height="18" viewBox="0 0 24 24" fill="none" xmlns="http://www.w3.org/2000/svg">
<path fill-rule="evenodd" clip-rule="evenodd" d="M21.0607 4.93629C21.6464 5.52207 21.6464 6.47182 21.0607 7.05761L10.0607 18.0576C9.47487 18.6434 8.52513 18.6434 7.93934 18.0576L2.93934 13.0576C2.35355 12.4718 2.35355 11.5221 2.93934 10.9363C3.52513 10.3505 4.47487 10.3505 5.06066 10.9363L9 14.8756L18.9393 4.93629C19.5251 4.3505 20.4749 4.3505 21.0607 4.93629Z" fill="currentColor"/>
</svg>

<svg width="18" height="18" viewBox="0 0 24 24" fill="none" xmlns="http://www.w3.org/2000/svg"><path fill-rule="evenodd" clip-rule="evenodd" d="M21.0607 4.9363c.5857.5858.5857 1.5355 0 2.1213l-11 11c-.5858.5858-1.5356.5858-2.1214 0l-5-5c-.5857-.5858-.5857-1.5355 0-2.1213.5858-.5858 1.5356-.5858 2.1214 0L9 14.8756l9.9393-9.9393c.5858-.5858 1.5356-.5858 2.1214 0Z" fill="currentColor"/></svg>
